X:1
T:Title
%%score 1 { ( 2 4 ) | 3 } 5 6
L:1/8
Q:1/4=120
M:4/4
K:F
V:1 treble nm="Voice"
V:2 treble nm="Piano"
V:4 treble 
V:3 treble 
V:5 bass nm="Voice"
V:6 bass nm="Voice"
V:1
 z8 | z8 | z8 | z16 | z8 | z8 | z8 | z8 | z8 | z8 | z8 |!f! FcFc GcFc | FcFc x5 AGGA | FcFc GcFc | %14
 FcFc AGGA | FcFc FcFc | AGFA FAFA x3/2 | EGEG DADA | EAEA FcFc | FcFc FcFc | AcAc AdAA/G/ | %21
 FcEc AcAc | AcGA/G/ FcFc | Fc z2 z4 | z8 :| %25
V:2
 z8 | z8 | a/b/a c'4 a/b/a | gf x2 c'4 x4 a/b/a x2 | gf d'2 c'2 f2 | f3 f/b/ agf>f | %6
 f/g/f c'2 f7/2 f/ | f/g/f c'2 f7/2 f/ | f'2 b2 a2 c'2 | f8 | z8 | z2 [fa]2 [eg]2 [fa]2 | z2 x11 | %13
 f2 [fa]2 [eg]2 [fa]2 | [db]3 a/g/ f3 g/a/ | [fa]2 [ac']2 [gb]2 [fa]2 | %16
 [eg]2 x a [df]3 x/ [df]/ x3/2 | [df] [ce]2 [df]/[eg]/ [eg] [df]2 x | %18
 [df] [ce]2 [df]/[eg]/ [eg]2 [fa]2 | z8 | z8 | z8 | z8 | z8 | z8 :| %25
V:3
 FcFc FcFc | FcFc FcFc | FcFc FcEc | D2 A2 D2 A2 D2 A2 C2 A2 | B,FB,F A,FA,F | G,FG,F A,FA,F | %6
 B,FB,F CGCG | DADA EAEA | FBFB GcGc | AdAd AdAd | AdAd AdAd |!p! FcAc GcAc | FcFc x5 AGGA | %13
 FcAc GcAc | BcFc FcFc | AcFc BcAc | AcFA FAFA/F/ x3/2 | FEEF/G/ GFFA/F/ | FEEF/G/ GAFA | %19
 FAFA FBFB | GcGc AdAd | AdAd AdAd | AdAd AcAc | FcFc FcFc | FcFc FcFc :| %25
V:4
 x8 | x8 | x8 | x16 | x8 | x8 | x8 | x8 | x8 | x8 | x8 | x8 | [df]8 c' ag/f/ga | x8 | x8 | x8 | %16
 x19/2 | x8 | x8 | x8 | x8 | x8 | x8 | x8 | x8 :| %25
V:5
 z8 | z8 | z8 | z16 | z8 | z8 | z8 | z8 | z8 | z8 | z8 | z2 A,2 G,2 A,2 | F,8 x5 | z2 A,2 G,2 A,2 | %14
 B,3 A,/G,/ F,3 G,/A,/ | A,2 C2 B,2 A,2 | G,3 A, F,7/2 z2 | F,E,E,F,/G,/ G, F,2 x/ F,/ | %18
 F,E,E,F,/G,/ G, A,3 | z8 | z8 | z8 | z8 | z8 | z8 :| %25
V:6
 z8 | z8 | z8 | z16 | z8 | z8 | z8 | z8 | z8 | z8 | z8 | z2 F,,2 E,,2 F,,2 | B,,8 x5 | %13
 z2 F,,2 E,,2 F,,2 | B,,4 C,2 x C, | F,,2 F,,2 E,,2 D,,2 | A,,3 A,, B,,3 B,, x3/2 | C,3 C, D,3 D, | %18
 E,3 E, F,3 F, | F,,4 B,,2 B,,2 | C,2 C,2 D,2 D,2 | A,,2 A,,2 B,,2 B,,2 | C,2 C,2 F,4 | F,,8 | %24
 F,,8 :| %25

